X: 29728
T: Nutting Girl, The
R: reel
M: 4/4
K: Gmajor
|:BA|G2 GA BAGB|d2 c2 A4|G2 Bc d2 g2|d6 B2|
cdec A2 Bc|BcdB G2 AB|c2 A2 F2 D2|G6:|
|:BA|G2 g2 gefg|f2 e2 d2 Bc|d2 ef g2 e2|f6 e2|
d2 g2 g3 f|e2 d2 d3 B|A2 B2 c2 d2|egfe dcBA|
G2 GA BAGB|d2 c2 A4|G2 Bc d2 g2|d6 B2|
cdec A2 Bc|BcdB G2 AB|c2 A2 F2 D2|G4 G2||

